rospo-dark/small/status/media-playlist-shuffle-symbolic.svg

<?xml version="1.0" encoding="UTF-8" standalone="no"?>
<svg
   xmlns:dc="http://purl.org/dc/elements/1.1/"
   xmlns:cc="http://creativecommons.org/ns#"
   xmlns:rdf="http://www.w3.org/1999/02/22-rdf-syntax-ns#"
   xmlns:svg="http://www.w3.org/2000/svg"
   xmlns="http://www.w3.org/2000/svg"
   xmlns:sodipodi="http://sodipodi.sourceforge.net/DTD/sodipodi-0.dtd"
   xmlns:inkscape="http://www.inkscape.org/namespaces/inkscape"
   width="22"
   height="22"
   version="1.1"
   id="svg10"
   sodipodi:docname="media-playlist-shuffle-symbolic.svg"
   inkscape:version="0.92.1 r">
  <metadata
     id="metadata16">
    <rdf:RDF>
      <cc:Work
         rdf:about="">
        <dc:format>image/svg+xml</dc:format>
        <dc:type
           rdf:resource="http://purl.org/dc/dcmitype/StillImage" />
      </cc:Work>
    </rdf:RDF>
  </metadata>
  <defs
     id="defs14" />
  <sodipodi:namedview
     pagecolor="#ffffff"
     bordercolor="#666666"
     borderopacity="1"
     objecttolerance="10"
     gridtolerance="10"
     guidetolerance="10"
     inkscape:pageopacity="0"
     inkscape:pageshadow="2"
     inkscape:window-width="769"
     inkscape:window-height="480"
     id="namedview12"
     showgrid="false"
     inkscape:zoom="10.727273"
     inkscape:cx="6.4548903"
     inkscape:cy="11"
     inkscape:window-x="0"
     inkscape:window-y="0"
     inkscape:window-maximized="0"
     inkscape:current-layer="svg10" />
  <g
     id="g4497"
     transform="translate(2.5,3)">
    <path
       id="path2"
       d="M 13,13 V 11 H 9 C 8.446,11 8,10.55 8,10 V 6 C 8,4.34 6.662,3 5,3 H 1 v 2 h 4 c 0.554,0 1,0.45 1,1 v 4 c 0,1.66 1.338,3 3,3 z"
       style="fill:#d3dae3"
       inkscape:connector-curvature="0" />
    <path
       id="path4"
       d="M 13,3 V 5 H 9.377 C 9.208,4.2702 8.8538,3.6156 8.375,3.0664 8.5769,3.0238 8.7851,3 9,3 Z m -8.377,8 c 0.169,0.73 0.523,1.384 1.002,1.934 C 5.423,12.976 5.215,13 5,13 H 1 v -2 z"
       style="fill:#d3dae3"
       inkscape:connector-curvature="0" />
    <path
       id="path6"
       d="M 12,1 V 7 L 16,4 Z"
       style="fill:#d3dae3"
       inkscape:connector-curvature="0" />
    <path
       id="path8"
       d="m 12,9 v 6 l 4,-3 z"
       style="fill:#d3dae3"
       inkscape:connector-curvature="0" />
  </g>
</svg>

<svg xmlns="http://www.w3.org/2000/svg" width="16" height="16" version="1.1">
 <path style="fill:#5c616c" d="M 13,13 V 11 H 9 C 8.446,11 8,10.55 8,10 V 6 C 8,4.34 6.662,3 5,3 H 1 V 5 H 5 C 5.554,5 6,5.45 6,6 V 10 C 6,11.66 7.338,13 9,13 Z"/>
 <path style="fill:#5c616c" d="M 13,3 V 5 H 9.377 C 9.208,4.2702 8.8538,3.6156 8.375,3.0664 8.5769,3.0238 8.7851,3 9,3 Z M 4.623,11 C 4.792,11.73 5.146,12.384 5.625,12.934 5.423,12.976 5.215,13 5,13 H 1 V 11 Z"/>
 <path style="fill:#5c616c" d="M 12,1 V 7 L 16,4 Z"/>
 <path style="fill:#5c616c" d="M 12,9 V 15 L 16,12 Z"/>
</svg>
